icons/svg/burst-mode.svg

<svg xmlns="http://www.w3.org/2000/svg" version="1.1" baseProfile="full" width="24" height="24" viewBox="0 0 24.00 24.00" xml:space="preserve"><path fill="#000" fill-opacity="1" stroke-width="1.333" stroke-linejoin="miter" d="M1 5h2v14H1V5zm4 0h2v14H5V5zm17 0H10c-.55 0-1 .45-1 1v12c0 .55.45 1 1 1h12c.55 0 1-.45 1-1V6c0-.55-.45-1-1-1zM11 17l2.5-3.15L15.29 16l2.5-3.22L21 17H11z"/></svg>

﻿<?xml version="1.0" encoding="utf-8"?>
<!DOCTYPE svg PUBLIC "-//W3C//DTD SVG 1.1//EN" "http://www.w3.org/Graphics/SVG/1.1/DTD/svg11.dtd">
<svg xmlns="http://www.w3.org/2000/svg" xmlns:xlink="http://www.w3.org/1999/xlink" version="1.1" baseProfile="full" width="24" height="24" viewBox="0 0 24.00 24.00" enable-background="new 0 0 24.00 24.00" xml:space="preserve">
	<path fill="#000000" fill-opacity="1" stroke-width="1.33333" stroke-linejoin="miter" d="M 1,5L 3,5L 3,19L 1,19L 1,5 Z M 5,5L 7,5L 7,19L 5,19L 5,5 Z M 22,5L 10,5C 9.45,5 9,5.45 9,6L 9,18C 9,18.55 9.45,19 10,19L 22,19C 22.55,19 23,18.55 23,18L 23,6C 23,5.45 22.55,5 22,5 Z M 11,17L 13.5,13.85L 15.29,16L 17.79,12.78L 21,17L 11,17 Z "/>
</svg>
